; G-Code generated by Simplify3D(R) Version 4.0.1
; Apr 26, 2023 at 2:33:15 PM
; Settings Summary
;   processName,1.05.90%
;   applyToModels,?????????????
;   profileName,Default (modified)
;   profileVersion,2017-03-01 08:00:00
;   baseProfile,
;   printMaterial,PLA
;   printQuality,Medium
;   printExtruders,
;   extruderName,Primary Extruder
;   extruderToolheadNumber,0
;   extruderDiameter,0.4
;   extruderAutoWidth,0
;   extruderWidth,0.4
;   extrusionMultiplier,1.05
;   extruderUseRetract,1
;   extruderRetractionDistance,1.5
;   extruderExtraRestartDistance,-0.2
;   extruderRetractionZLift,0
;   extruderRetractionSpeed,2400
;   extruderUseCoasting,0
;   extruderCoastingDistance,0.2
;   extruderUseWipe,0
;   extruderWipeDistance,5
;   primaryExtruder,0
;   layerHeight,0.2
;   topSolidLayers,3
;   bottomSolidLayers,3
;   perimeterOutlines,3
;   printPerimetersInsideOut,1
;   startPointOption,3
;   startPointOriginX,87.5
;   startPointOriginY,0
;   sequentialIslands,0
;   spiralVaseMode,0
;   firstLayerHeightPercentage,90
;   firstLayerWidthPercentage,100
;   firstLayerUnderspeed,0.5
;   useRaft,0
;   raftExtruder,0
;   raftTopLayers,2
;   raftBaseLayers,2
;   raftOffset,3
;   raftSeparationDistance,0.2
;   raftTopInfill,40
;   aboveRaftSpeedMultiplier,0.5
;   useSkirt,1
;   skirtExtruder,0
;   skirtLayers,1
;   skirtOutlines,2
;   skirtOffset,2
;   usePrimePillar,0
;   primePillarExtruder,999
;   primePillarWidth,12
;   primePillarLocation,7
;   primePillarSpeedMultiplier,1
;   useOozeShield,0
;   oozeShieldExtruder,999
;   oozeShieldOffset,2
;   oozeShieldOutlines,1
;   oozeShieldSidewallShape,1
;   oozeShieldSidewallAngle,30
;   oozeShieldSpeedMultiplier,1
;   infillExtruder,0
;   internalInfillPattern,Rectilinear
;   externalInfillPattern,Rectilinear
;   infillPercentage,25
;   outlineOverlapPercentage,40
;   infillExtrusionWidthPercentage,100
;   minInfillLength,2.5
;   infillLayerInterval,1
;   internalInfillAngles,45,-45
;   overlapInternalInfillAngles,0
;   externalInfillAngles,45,-45
;   generateSupport,1
;   supportExtruder,0
;   supportInfillPercentage,20
;   supportExtraInflation,0
;   supportBaseLayers,0
;   denseSupportExtruder,0
;   denseSupportLayers,0
;   denseSupportInfillPercentage,70
;   supportLayerInterval,1
;   supportHorizontalPartOffset,0.3
;   supportUpperSeparationLayers,1
;   supportLowerSeparationLayers,1
;   supportType,0
;   supportGridSpacing,4
;   maxOverhangAngle,45
;   supportAngles,0
;   temperatureName,Primary Extruder,bed
;   temperatureNumber,0,0
;   temperatureSetpointCount,1,1
;   temperatureSetpointLayers,1,1
;   temperatureSetpointTemperatures,205,60
;   temperatureStabilizeAtStartup,1,1
;   temperatureHeatedBed,0,1
;   temperatureRelayBetweenLayers,0,0
;   temperatureRelayBetweenLoops,0,0
;   fanLayers,1,2
;   fanSpeeds,0,100
;   blipFanToFullPower,0
;   adjustSpeedForCooling,1
;   minSpeedLayerTime,15
;   minCoolingSpeedSlowdown,20
;   increaseFanForCooling,0
;   minFanLayerTime,45
;   maxCoolingFanSpeed,100
;   increaseFanForBridging,0
;   bridgingFanSpeed,100
;   use5D,1
;   relativeEdistances,0
;   allowEaxisZeroing,1
;   independentExtruderAxes,0
;   includeM10123,0
;   stickySupport,1
;   applyToolheadOffsets,0
;   gcodeXoffset,0
;   gcodeYoffset,0
;   gcodeZoffset,0
;   overrideMachineDefinition,1
;   machineTypeOverride,0
;   strokeXoverride,235
;   strokeYoverride,210
;   strokeZoverride,314
;   originOffsetXoverride,0
;   originOffsetYoverride,0
;   originOffsetZoverride,0
;   homeXdirOverride,-1
;   homeYdirOverride,-1
;   homeZdirOverride,-1
;   flipXoverride,1
;   flipYoverride,-1
;   flipZoverride,1
;   toolheadOffsets,0,0|0,0|0,0|0,0|0,0|0,0
;   overrideFirmwareConfiguration,0
;   firmwareTypeOverride,RepRap (Marlin/Repetier/Sprinter)
;   GPXconfigOverride,r2
;   baudRateOverride,115200
;   overridePrinterModels,0
;   printerModelsOverride
;   startingGcode,; Ender 3 Custom Start G-code,G92 E0 ; Reset Extruder,G28 ; Home all axes,G1 Z2.0 F3000 ; Move Z Axis up little to prevent scratching of Heat Bed,G1 X5 Y205 Z0.3 F5000.0 ; Move to start position,G1 X150 Y205 Z0.3 F1500.0 E15 ; Draw the first line,G1 X150 Y206 Z0.3 F5000.0 ; Move to side a little,G1 X5 Y206 Z0.3 F1500.0 E30 ; Draw the second line,G92 E0 ; Reset Extruder,G1 Z2.0 F3000 ; Move Z Axis up little to prevent scratching of Heat Bed,G1 X5 Y20 Z0.3 F5000.0 ; Move over to prevent blob squish
;   layerChangeGcode,
;   retractionGcode,
;   toolChangeGcode,
;   endingGcode,; -- END GCODE --,M104 S0                 ;turn off nozzle heater,M140 S0                 ;turn off bed heater,G91                     ;set to relative positioning,G1 E-10 F300            ;retract the filament slightly,G90                     ;set to absolute positioning,G28 X0                  ;move to the X-axis origin (Home),G0 Y200 F600            ;bring the bed to the front for easy print removal,M84                     ;turn off stepper motors,; -- end of END GCODE --
;   exportFileFormat,gcode
;   celebration,0
;   celebrationSong,Random Song
;   postProcessing,
;   defaultSpeed,2100
;   outlineUnderspeed,0.6
;   solidInfillUnderspeed,0.8
;   supportUnderspeed,0.8
;   rapidXYspeed,3000
;   rapidZspeed,900
;   minBridgingArea,50
;   bridgingExtraInflation,0
;   bridgingExtrusionMultiplier,1
;   bridgingSpeedMultiplier,1
;   useFixedBridgingAngle,0
;   fixedBridgingAngle,0
;   applyBridgingToPerimeters,0
;   filamentDiameters,1.75|1.75|1.75|1.75|1.75|1.75
;   filamentPricesPerKg,200|46|46|46|46|46
;   filamentDensities,1.25|1.25|1.25|1.25|1.25|1.25
;   useMinPrintHeight,0
;   minPrintHeight,0
;   useMaxPrintHeight,0
;   maxPrintHeight,0
;   useDiaphragm,0
;   diaphragmLayerInterval,20
;   robustSlicing,1
;   mergeAllIntoSolid,0
;   onlyRetractWhenCrossingOutline,0
;   retractBetweenLayers,1
;   useRetractionMinTravel,1
;   retractionMinTravel,2
;   retractWhileWiping,0
;   onlyWipeOutlines,1
;   avoidCrossingOutline,0
;   maxMovementDetourFactor,3
;   toolChangeRetractionDistance,12
;   toolChangeExtraRestartDistance,-0.5
;   toolChangeRetractionSpeed,600
;   externalThinWallType,1
;   internalThinWallType,1
;   thinWallAllowedOverlapPercentage,20
;   singleExtrusionMinLength,1
;   singleExtrusionMinPrintingWidthPercentage,50
;   singleExtrusionMaxPrintingWidthPercentage,200
;   singleExtrusionEndpointExtension,0.2
;   horizontalSizeCompensation,0
G90   ；读代码
M82   ；设置挤出头为绝对模式
M106 S0 
M140 S60
M190 S60
M104 S205 T0
M109 S205 T0
; Ender 3 Custom Start G-code      //
G92 E0 ; Reset Extruder
G28 ; Home all axes
G1 Z2.0 F3000 ; Move Z Axis up little to prevent scratching of Heat Bed
G1 X5 Y205 Z0.3 F5000.0 ; Move to start position
G1 X150 Y205 Z0.3 F1500.0 E15 ; Draw the first line
G1 X150 Y206 Z0.3 F5000.0 ; Move to side a little
G1 X5 Y206 Z0.3 F1500.0 E30 ; Draw the second line
G92 E0 ; Reset Extruder
G1 Z2.0 F3000 ; Move Z Axis up little to prevent scratching of Heat Bed
G1 X5 Y20 Z0.3 F5000.0 ; Move over to prevent blob squish   //
G92 E0  //  执行打印动作
G1 E-1.5000 F2400
G1 Z0.180 F900
; process 1.05.90%
; layer 1, Z = 0.180
T0
; tool H0.200 W0.400
; skirt
G1 X84.771 Y77.612 F3000
G1 E-0.2000 F720
G92 E0
G1 X86.112 Y76.271 E0.0662 F1050//开始
G1 X86.332 Y76.180 E0.0745
G1 X148.668 Y76.180 E2.2515
G1 X148.888 Y76.271 E2.2598
G1 X150.229 Y77.612 E2.3260
G1 X150.320 Y77.832 E2.3344
G1 X150.320 Y84.168 E2.5556
G1 X150.229 Y84.388 E2.5640
G1 X148.888 Y85.729 E2.6302
G1 X148.668 Y85.820 E2.6385
G1 X134.189 Y85.820 E3.1441
G1 X134.293 Y85.873 E3.1482
G1 X134.333 Y85.898 E3.1499
G1 X134.879 Y86.294 E3.1734
G1 X134.915 Y86.324 E3.1751
G1 X135.171 Y86.580 E3.1877
G1 X135.202 Y86.616 E3.1894
G1 X135.599 Y87.161 E3.2129
G1 X135.624 Y87.201 E3.2146
G1 X135.788 Y87.524 E3.2272
G1 X135.806 Y87.567 E3.2289
G1 X136.001 Y88.166 E3.2509
G1 X136.010 Y88.200 E3.2521
G1 X136.064 Y88.466 E3.2616
G1 X136.068 Y88.501 E3.2628
G1 X136.095 Y88.838 E3.2746
G1 X136.096 Y88.850 E3.2750
G1 X136.100 Y88.941 E3.2782
G1 X136.100 Y88.953 E3.2786
G1 X136.100 Y130.045 E4.7137
G1 X136.100 Y130.057 E4.7141
G1 X136.096 Y130.147 E4.7173
G1 X136.096 Y130.159 E4.7177
G1 X136.060 Y130.605 E4.7333
G1 X136.058 Y130.628 E4.7341
G1 X136.030 Y130.805 E4.7404
G1 X136.025 Y130.828 E4.7412
G1 X135.910 Y131.309 E4.7584
G1 X135.904 Y131.331 E4.7593
G1 X135.848 Y131.503 E4.7656
G1 X135.840 Y131.525 E4.7664
G1 X135.651 Y131.982 E4.7837
G1 X135.641 Y132.004 E4.7845
G1 X135.560 Y132.165 E4.7908
G1 X135.548 Y132.185 E4.7916
G1 X135.290 Y132.607 E4.8089
G1 X135.277 Y132.627 E4.8097
G1 X135.171 Y132.773 E4.8160
G1 X135.156 Y132.792 E4.8169
G1 X134.835 Y133.168 E4.8341
G1 X134.819 Y133.186 E4.8349
G1 X134.692 Y133.314 E4.8413
G1 X134.674 Y133.330 E4.8421
G1 X134.299 Y133.651 E4.8594
G1 X134.280 Y133.666 E4.8602
G1 X134.134 Y133.772 E4.8665
G1 X134.115 Y133.785 E4.8673
G1 X133.693 Y134.044 E4.8846
G1 X133.673 Y134.055 E4.8854
G1 X133.512 Y134.138 E4.8917
G1 X133.490 Y134.147 E4.8925
G1 X133.034 Y134.337 E4.9098
G1 X133.011 Y134.345 E4.9106
G1 X132.840 Y134.401 E4.9169
G1 X132.817 Y134.408 E4.9178
G1 X132.336 Y134.524 E4.9350
G1 X132.313 Y134.528 E4.9359
G1 X132.135 Y134.557 E4.9422
G1 X132.111 Y134.560 E4.9430
G1 X131.663 Y134.595 E4.9587
G1 X131.651 Y134.596 E4.9591
G1 X131.560 Y134.600 E4.9623
G1 X131.548 Y134.600 E4.9627
G1 X103.455 Y134.600 E5.9438
G1 X103.443 Y134.600 E5.9442
G1 X103.353 Y134.596 E5.9474
G1 X103.341 Y134.596 E5.9478
G1 X102.895 Y134.560 E5.9634
G1 X102.872 Y134.558 E5.9642
G1 X102.695 Y134.530 E5.9705
G1 X102.672 Y134.525 E5.9713
G1 X102.191 Y134.410 E5.9886
G1 X102.169 Y134.404 E5.9894
G1 X101.997 Y134.348 E5.9957
G1 X101.975 Y134.340 E5.9965
G1 X101.517 Y134.151 E6.0138
G1 X101.496 Y134.141 E6.0146
G1 X101.335 Y134.060 E6.0209
G1 X101.314 Y134.048 E6.0217
G1 X100.893 Y133.790 E6.0390
G1 X100.873 Y133.777 E6.0398
G1 X100.727 Y133.671 E6.0462
G1 X100.708 Y133.656 E6.0470
G1 X100.332 Y133.335 E6.0643
G1 X100.314 Y133.319 E6.0651
G1 X100.186 Y133.192 E6.0714
G1 X100.170 Y133.174 E6.0722
G1 X99.849 Y132.799 E6.0895
G1 X99.834 Y132.780 E6.0903
G1 X99.728 Y132.634 E6.0966
G1 X99.715 Y132.615 E6.0974
G1 X99.456 Y132.193 E6.1147
G1 X99.445 Y132.173 E6.1155
G1 X99.362 Y132.012 E6.1218
G1 X99.353 Y131.990 E6.1227
G1 X99.163 Y131.534 E6.1399
G1 X99.155 Y131.511 E6.1408
G1 X99.099 Y131.340 E6.1471
G1 X99.092 Y131.317 E6.1479
G1 X98.976 Y130.836 E6.1652
G1 X98.972 Y130.813 E6.1660
G1 X98.943 Y130.635 E6.1723
G1 X98.940 Y130.611 E6.1731
G1 X98.905 Y130.163 E6.1888
G1 X98.904 Y130.151 E6.1892
G1 X98.900 Y130.060 E6.1924
G1 X98.900 Y130.048 E6.1929
G1 X98.900 Y88.910 E7.6295
G1 X98.901 Y88.886 E7.6303
G1 X98.915 Y88.706 E7.6367
G1 X98.918 Y88.683 E7.6375
G1 X99.009 Y88.106 E7.6579
G1 X99.020 Y88.060 E7.6595
G1 X99.132 Y87.716 E7.6722
G1 X99.150 Y87.672 E7.6738
G1 X99.435 Y87.113 E7.6957
G1 X99.453 Y87.082 E7.6970
G1 X99.603 Y86.857 E7.7064
G1 X99.624 Y86.829 E7.7076
G1 X99.902 Y86.504 E7.7226
G1 X99.926 Y86.478 E7.7238
G1 X100.125 Y86.294 E7.7333
G1 X100.152 Y86.271 E7.7345
G1 X100.625 Y85.928 E7.7549
G1 X100.654 Y85.909 E7.7562
G1 X100.812 Y85.820 E7.7625
G1 X86.332 Y85.820 E8.2682
G1 X86.112 Y85.729 E8.2765
G1 X84.771 Y84.388 E8.3427
G1 X84.680 Y84.168 E8.3510
G1 X84.680 Y77.832 E8.5723
G1 X84.771 Y77.612 E8.5806
G1 X85.110 Y77.838 F3000
G92 E0
G1 X86.338 Y76.610 E0.0606 F1050
G1 X86.412 Y76.580 E0.0634
G1 X148.588 Y76.580 E2.2348
G1 X148.662 Y76.610 E2.2376
G1 X149.890 Y77.838 E2.2982
G1 X149.920 Y77.912 E2.3010
G1 X149.920 Y84.088 E2.5167
G1 X149.890 Y84.162 E2.5195
G1 X148.662 Y85.390 E2.5801
G1 X148.588 Y85.420 E2.5829
G1 X129.920 Y85.420 E3.2349
G1 X129.920 Y85.800 E3.2481
G1 X132.527 Y85.800 E3.3392
G1 X132.531 Y85.800 E3.3393
G1 X132.608 Y85.803 E3.3420
G1 X132.611 Y85.803 E3.3421
G1 X132.942 Y85.827 E3.3537
G1 X132.954 Y85.829 E3.3541
G1 X133.202 Y85.877 E3.3629
G1 X133.213 Y85.880 E3.3634
G1 X133.788 Y86.067 E3.3845
G1 X133.803 Y86.073 E3.3850
G1 X134.097 Y86.222 E3.3966
G1 X134.111 Y86.231 E3.3971
G1 X134.632 Y86.608 E3.4196
G1 X134.644 Y86.618 E3.4201
G1 X134.878 Y86.852 E3.4317
G1 X134.888 Y86.864 E3.4322
G1 X135.266 Y87.384 E3.4547
G1 X135.275 Y87.397 E3.4552
G1 X135.425 Y87.692 E3.4668
G1 X135.431 Y87.706 E3.4673
G1 X135.618 Y88.279 E3.4883
G1 X135.620 Y88.290 E3.4888
G1 X135.669 Y88.533 E3.4974
G1 X135.671 Y88.545 E3.4978
G1 X135.696 Y88.866 E3.5091
G1 X135.697 Y88.870 E3.5092
G1 X135.700 Y88.953 E3.5121
G1 X135.700 Y88.957 E3.5123
G1 X135.700 Y130.041 E4.9471
G1 X135.700 Y130.045 E4.9472
G1 X135.697 Y130.128 E4.9501
G1 X135.696 Y130.132 E4.9502
G1 X135.662 Y130.565 E4.9654
G1 X135.661 Y130.573 E4.9657
G1 X135.636 Y130.735 E4.9714
G1 X135.634 Y130.743 E4.9717
G1 X135.523 Y131.208 E4.9884
G1 X135.521 Y131.216 E4.9887
G1 X135.470 Y131.373 E4.9944
G1 X135.467 Y131.380 E4.9947
G1 X135.285 Y131.822 E5.0114
G1 X135.281 Y131.830 E5.0117
G1 X135.207 Y131.977 E5.0175
G1 X135.203 Y131.983 E5.0177
G1 X134.953 Y132.392 E5.0344
G1 X134.949 Y132.399 E5.0347
G1 X134.852 Y132.532 E5.0405
G1 X134.847 Y132.538 E5.0408
G1 X134.536 Y132.903 E5.0575
G1 X134.531 Y132.909 E5.0578
G1 X134.414 Y133.025 E5.0635
G1 X134.408 Y133.031 E5.0638
G1 X134.045 Y133.342 E5.0805
G1 X134.038 Y133.347 E5.0808
G1 X133.905 Y133.444 E5.0866
G1 X133.899 Y133.448 E5.0868
G1 X133.491 Y133.699 E5.1035
G1 X133.484 Y133.703 E5.1038
G1 X133.337 Y133.778 E5.1096
G1 X133.330 Y133.781 E5.1099
G1 X132.887 Y133.965 E5.1266
G1 X132.880 Y133.968 E5.1269
G1 X132.723 Y134.019 E5.1326
G1 X132.716 Y134.021 E5.1329
G1 X132.250 Y134.133 E5.1496
G1 X132.242 Y134.135 E5.1499
G1 X132.079 Y134.161 E5.1557
G1 X132.072 Y134.161 E5.1559
G1 X131.635 Y134.196 E5.1712
G1 X131.631 Y134.196 E5.1714
G1 X131.548 Y134.200 E5.1743
G1 X131.544 Y134.200 E5.1744
G1 X103.459 Y134.200 E6.1552
G1 X103.455 Y134.200 E6.1554
G1 X103.372 Y134.197 E6.1583
G1 X103.368 Y134.196 E6.1584
G1 X102.935 Y134.162 E6.1736
G1 X102.927 Y134.161 E6.1739
G1 X102.765 Y134.136 E6.1796
G1 X102.757 Y134.134 E6.1799
G1 X102.292 Y134.023 E6.1966
G1 X102.284 Y134.021 E6.1968
G1 X102.127 Y133.970 E6.2026
G1 X102.120 Y133.967 E6.2029
G1 X101.677 Y133.785 E6.2196
G1 X101.670 Y133.781 E6.2199
G1 X101.523 Y133.707 E6.2256
G1 X101.516 Y133.703 E6.2259
G1 X101.108 Y133.453 E6.2426
G1 X101.101 Y133.449 E6.2429
G1 X100.968 Y133.352 E6.2487
G1 X100.962 Y133.347 E6.2489
G1 X100.597 Y133.036 E6.2657
G1 X100.591 Y133.031 E6.2659
G1 X100.475 Y132.914 E6.2717
G1 X100.469 Y132.908 E6.2720
G1 X100.158 Y132.545 E6.2887
G1 X100.153 Y132.538 E6.2890
G1 X100.056 Y132.405 E6.2947
G1 X100.052 Y132.399 E6.2950
G1 X99.801 Y131.991 E6.3117
G1 X99.797 Y131.984 E6.3120
G1 X99.722 Y131.837 E6.3178
G1 X99.719 Y131.830 E6.3180
G1 X99.535 Y131.387 E6.3348
G1 X99.532 Y131.380 E6.3350
G1 X99.481 Y131.223 E6.3408
G1 X99.479 Y131.216 E6.3411
G1 X99.367 Y130.750 E6.3578
G1 X99.365 Y130.742 E6.3581
G1 X99.339 Y130.579 E6.3638
G1 X99.339 Y130.572 E6.3641
G1 X99.304 Y130.135 E6.3794
G1 X99.304 Y130.131 E6.3795
G1 X99.300 Y130.048 E6.3825
G1 X99.300 Y130.044 E6.3826
G1 X99.300 Y88.918 E7.8189
G1 X99.300 Y88.910 E7.8191
G1 X99.313 Y88.745 E7.8249
G1 X99.314 Y88.737 E7.8252
G1 X99.402 Y88.184 E7.8447
G1 X99.406 Y88.168 E7.8453
G1 X99.508 Y87.854 E7.8568
G1 X99.514 Y87.840 E7.8574
G1 X99.786 Y87.305 E7.8783
G1 X99.792 Y87.295 E7.8788
G1 X99.929 Y87.089 E7.8874
G1 X99.936 Y87.080 E7.8878
G1 X100.198 Y86.772 E7.9019
G1 X100.207 Y86.764 E7.9023
G1 X100.388 Y86.595 E7.9110
G1 X100.397 Y86.588 E7.9114
G1 X100.851 Y86.258 E7.9310
G1 X100.860 Y86.252 E7.9314
G1 X101.076 Y86.130 E7.9400
G1 X101.087 Y86.125 E7.9404
G1 X101.461 Y85.970 E7.9546
G1 X101.472 Y85.966 E7.9550
G1 X101.710 Y85.899 E7.9636
G1 X101.722 Y85.896 E7.9640
G1 X102.235 Y85.814 E7.9822
G1 X102.243 Y85.813 E7.9825
G1 X102.408 Y85.800 E7.9883
G1 X102.416 Y85.800 E7.9885
G1 X105.080 Y85.800 E8.0816
G1 X105.080 Y85.420 E8.0948
G1 X86.412 Y85.420 E8.7468
G1 X86.338 Y85.390 E8.7496
G1 X85.110 Y84.162 E8.8102
G1 X85.080 Y84.088 E8.8130
G1 X85.080 Y77.912 E9.0287
G1 X85.110 Y77.838 E9.0315
G92 E0
G1 E-1.5000 F2400
; inner perimeter
G1 X102.500 Y89.000 F3000
G1 E-0.2000 F2400
G92 E0
G1 X132.500 Y89.000 E1.0477 F840
G1 X132.500 Y108.000 E1.7112
